svg/fluentui-system-icons/ic_fluent_emoji_sad_24_regular.svg

<svg width="24" height="24" viewBox="0 0 24 24" fill="none" xmlns="http://www.w3.org/2000/svg">
<path d="M12.0001 1.99805C17.5238 1.99805 22.0016 6.47589 22.0016 11.9996C22.0016 17.5233 17.5238 22.0011 12.0001 22.0011C6.47638 22.0011 1.99854 17.5233 1.99854 11.9996C1.99854 6.47589 6.47638 1.99805 12.0001 1.99805ZM12.0001 3.49805C7.30481 3.49805 3.49854 7.30432 3.49854 11.9996C3.49854 16.6949 7.30481 20.5011 12.0001 20.5011C16.6954 20.5011 20.5016 16.6949 20.5016 11.9996C20.5016 7.30432 16.6954 3.49805 12.0001 3.49805ZM12.0001 13.4971C13.6313 13.4971 15.1605 14.152 16.2811 15.2925C16.5714 15.588 16.5673 16.0628 16.2718 16.3531C15.9764 16.6434 15.5015 16.6393 15.2112 16.3438C14.3697 15.4874 13.2248 14.9971 12.0001 14.9971C10.7727 14.9971 9.62544 15.4896 8.78356 16.3493C8.49376 16.6453 8.01891 16.6503 7.72296 16.3605C7.42701 16.0707 7.42203 15.5958 7.71184 15.2999C8.83305 14.1549 10.3652 13.4971 12.0001 13.4971ZM9.00053 8.75024C9.6905 8.75024 10.2498 9.30956 10.2498 9.99953C10.2498 10.6895 9.6905 11.2488 9.00053 11.2488C8.31057 11.2488 7.75124 10.6895 7.75124 9.99953C7.75124 9.30956 8.31057 8.75024 9.00053 8.75024ZM15.0005 8.75024C15.6905 8.75024 16.2498 9.30956 16.2498 9.99953C16.2498 10.6895 15.6905 11.2488 15.0005 11.2488C14.3106 11.2488 13.7512 10.6895 13.7512 9.99953C13.7512 9.30956 14.3106 8.75024 15.0005 8.75024Z" fill="#212121"/>
</svg>

<svg xmlns="http://www.w3.org/2000/svg" width="24" height="24"><path d="M12 1.998c5.524 0 10.002 4.478 10.002 10.002 0 5.523-4.478 10-10.002 10-5.524.001-10-4.477-10-10C1.999 6.476 6.476 1.998 12 1.998Zm0 1.5a8.502 8.502 0 1 0 0 17.003 8.502 8.502 0 0 0 0-17.003Zm0 10c1.631 0 3.16.654 4.281 1.795a.75.75 0 1 1-1.07 1.05 4.485 4.485 0 0 0-3.21-1.346 4.485 4.485 0 0 0-3.217 1.352.75.75 0 1 1-1.072-1.05A5.984 5.984 0 0 1 12 13.498ZM9 8.75a1.25 1.25 0 1 1 0 2.499A1.25 1.25 0 0 1 9 8.75Zm6 0a1.25 1.25 0 1 1 0 2.499 1.25 1.25 0 0 1 0-2.499Z"/></svg>
